_includes/icons/ios-shopping-cart.svg

<svg fill="#666" height="50" viewBox="0 0 50 50" width="50" xmlns="http://www.w3.org/2000/svg"><path d="m1.8125 2c-.03125.007813-.0625.019531-.09375.03125-.972656.136719-1.71875.960938-1.71875 1.96875 0 1.105469.894531 2 2 2s2-.894531 2-2h4.65625c1.246094 0 1.894531.257813 2.375.6875.472656.425781.855469 1.144531 1.1875 2.25l8 32.28125c.300781 1.144531.601563 2.324219 1.4375 3.28125.347656.398438.785156.722656 1.3125.96875-.585937.695313-.96875 1.558594-.96875 2.53125 0 2.199219 1.800781 4 4 4s4-1.800781 4-4c0-.734375-.214844-1.40625-.5625-2h6.125c-.347656.59375-.5625 1.265625-.5625 2 0 2.199219 1.800781 4 4 4s4-1.800781 4-4c0-1.027344-.417969-1.945312-1.0625-2.65625.113281-.304687.066406-.648437-.117187-.914062-.1875-.269532-.492188-.429688-.820313-.429688h-15.28125c-1.542969 0-2.171875-.328125-2.59375-.8125-.417969-.480469-.671875-1.320312-.96875-2.4375v-.03125l-.6875-2.71875h18.34375c.417969 0 .796875-.261719.9375-.65625l7.1875-19c.117188-.304687.074219-.648437-.113281-.917969-.1875-.269531-.496094-.429687-.824219-.425781h-30.71875l-2.125-8.53125c0-.019531 0-.042969 0-.0625-.382812-1.289062-.878906-2.40625-1.78125-3.21875s-2.171875-1.1875-3.71875-1.1875h-6.65625c-.03125 0-.0625 0-.09375 0s-.0625 0-.09375 0zm14.96875 15h28.78125l-6.4375 17h-18.125zm9.21875 27c1.117188 0 2 .882813 2 2 0 1.117188-.882812 2-2 2-1.117187 0-2-.882812-2-2 0-1.117187.882813-2 2-2zm13 0c1.117188 0 2 .882813 2 2 0 1.117188-.882812 2-2 2-1.117187 0-2-.882812-2-2 0-1.117187.882813-2 2-2z"/></svg>

<svg xmlns="http://www.w3.org/2000/svg" viewBox="0 0 50 50" width="50" height="50" fill="#666"><path d="M 1.8125 2 C 1.78125 2.007813 1.75 2.019531 1.71875 2.03125 C 0.746094 2.167969 0 2.992188 0 4 C 0 5.105469 0.894531 6 2 6 C 3.105469 6 4 5.105469 4 4 L 8.65625 4 C 9.902344 4 10.550781 4.257813 11.03125 4.6875 C 11.503906 5.113281 11.886719 5.832031 12.21875 6.9375 L 20.21875 39.21875 C 20.519531 40.363281 20.820313 41.542969 21.65625 42.5 C 22.003906 42.898438 22.441406 43.222656 22.96875 43.46875 C 22.382813 44.164063 22 45.027344 22 46 C 22 48.199219 23.800781 50 26 50 C 28.199219 50 30 48.199219 30 46 C 30 45.265625 29.785156 44.59375 29.4375 44 L 35.5625 44 C 35.214844 44.59375 35 45.265625 35 46 C 35 48.199219 36.800781 50 39 50 C 41.199219 50 43 48.199219 43 46 C 43 44.972656 42.582031 44.054688 41.9375 43.34375 C 42.050781 43.039063 42.003906 42.695313 41.820313 42.429688 C 41.632813 42.160156 41.328125 42 41 42 L 25.71875 42 C 24.175781 42 23.546875 41.671875 23.125 41.1875 C 22.707031 40.707031 22.453125 39.867188 22.15625 38.75 L 22.15625 38.71875 L 21.46875 36 L 39.8125 36 C 40.230469 36 40.609375 35.738281 40.75 35.34375 L 47.9375 16.34375 C 48.054688 16.039063 48.011719 15.695313 47.824219 15.425781 C 47.636719 15.15625 47.328125 14.996094 47 15 L 16.28125 15 L 14.15625 6.46875 C 14.15625 6.449219 14.15625 6.425781 14.15625 6.40625 C 13.773438 5.117188 13.277344 4 12.375 3.1875 C 11.472656 2.375 10.203125 2 8.65625 2 L 2 2 C 1.96875 2 1.9375 2 1.90625 2 C 1.875 2 1.84375 2 1.8125 2 Z M 16.78125 17 L 45.5625 17 L 39.125 34 L 21 34 Z M 26 44 C 27.117188 44 28 44.882813 28 46 C 28 47.117188 27.117188 48 26 48 C 24.882813 48 24 47.117188 24 46 C 24 44.882813 24.882813 44 26 44 Z M 39 44 C 40.117188 44 41 44.882813 41 46 C 41 47.117188 40.117188 48 39 48 C 37.882813 48 37 47.117188 37 46 C 37 44.882813 37.882813 44 39 44 Z"/></svg>
